X:1
T:Title
%%score { ( 1 2 ) | ( 3 4 ) }
L:1/8
Q:1/4=100
M:4/4
K:C
V:1 treble nm="Grand Piano"
V:2 treble 
V:3 bass 
V:4 bass 
V:1
 ED z D E2 G2 | [B,G]4 [G,B,D]4 | [DF]E[B,D]E F2 A2 | [EG]6 z2 | AG z G A2 c2 | [Ec]4 [EG]4 | %6
w: I.~H.~Meredith * * * *||||||
 ^FEDE F2 A2 |[M:3/4] [G,B,G]6 |[M:1/4] [^FA]B |[M:4/4] [Ec]2 [Ec]4 [CE][EG] | %10
w: ||||
 [FA]2 [FA]4 [FA][Fc] | B2 F2 B2 A2 |[M:3/4] [EG]6 |[M:1/4] [FA][FB] | %14
w: ||||
[M:4/4] [Ec]2 [EG]2 [Gc]2 [GB]2 | [GB]2 A4 AA | G2 c2 E2 [B,D]2 | C6 z2 |] %18
w: ||||
V:2
 z2 C2 z4 | x8 | x8 | x8 | z2 F2 z4 | x8 | x8 |[M:3/4] x6 |[M:1/4] x2 |[M:4/4] x8 | x8 | x8 | %12
[M:3/4] x6 |[M:1/4] x2 |[M:4/4] x8 | x8 | x8 | x8 |] %18
V:3
 .G,2 .E,2 z4 | [G,,D,]4 G,,4 | z[K:treble] C z C [G,D]2 [G,B,F]2 | [C,C]6 z2 | .C2 .A,2 z4 | %5
 [C,G,]4 [C,C]4 | .A,2 .^F,2 z4 |[M:3/4] G,,6 |[M:1/4] z F |[M:4/4] [C,G,]2 [C,G,]4 [C,G,][C,C] | %10
 [F,C]2 [F,C]4 [D,D][D,D] | [G,DF]2 [G,B,D]2 [G,DF]2 [G,B,F]2 |[M:3/4][K:bass] [C,C]6 | %13
[M:1/4] [F,C][D,G,] |[M:4/4] [C,G,]2 [C,C]2 [E,C]2 [E,C]2 | [F,C]2 [F,CF]4 [F,B,F][F,CF] | %16
 [G,CE]2 [E,G,C]2 [G,C]2 [G,,F,]2 | [C,E,]6 z2 |] %18
V:4
 [C,C]-[C,F,C]C,-[C,F,] [C,G,C]2 [C,E,C]2 | x8 | G,2[K:treble] G,2 z4 | x8 | %4
 [F,F]-[F,B,F]F,-[F,B,] [F,CF]2 [F,A,F]2 | x8 | [D,C]-[D,G,C][D,C]-[D,G,C] [D,A,C]2 [D,^F,C]2 | %7
[M:3/4] x6 |[M:1/4] G,2 |[M:4/4] x8 | x8 | x8 |[M:3/4][K:bass] x6 |[M:1/4] x2 |[M:4/4] x8 | x8 | %16
 x8 | x8 |] %18

